groups/aromatics/pyrene.svg

<?xml version='1.0' encoding='iso-8859-1'?>
<svg version='1.1' baseProfile='full'
              xmlns='http://www.w3.org/2000/svg'
                      xmlns:rdkit='http://www.rdkit.org/xml'
                      xmlns:xlink='http://www.w3.org/1999/xlink'
                  xml:space='preserve'
width='256px' height='256px' viewBox='0 0 256 256'>
<!-- END OF HEADER -->
<rect style='opacity:1.0;fill:#FFFFFF;stroke:none' width='256.0' height='256.0' x='0.0' y='0.0'> </rect>
<path class='bond-0 atom-0 atom-1' d='M 149.4,12.9 L 149.6,63.9' style='fill:none;fill-rule:evenodd;stroke:#000000;stroke-width:2.0px;stroke-linecap:butt;stroke-linejoin:miter;stroke-opacity:1' />
<path class='bond-1 atom-1 atom-2' d='M 149.6,63.9 L 193.9,89.3' style='fill:none;fill-rule:evenodd;stroke:#000000;stroke-width:2.0px;stroke-linecap:butt;stroke-linejoin:miter;stroke-opacity:1' />
<path class='bond-1 atom-1 atom-2' d='M 149.6,72.8 L 186.3,93.8' style='fill:none;fill-rule:evenodd;stroke:#000000;stroke-width:2.0px;stroke-linecap:butt;stroke-linejoin:miter;stroke-opacity:1' />
<path class='bond-2 atom-2 atom-3' d='M 193.9,89.3 L 194.1,140.4' style='fill:none;fill-rule:evenodd;stroke:#000000;stroke-width:2.0px;stroke-linecap:butt;stroke-linejoin:miter;stroke-opacity:1' />
<path class='bond-3 atom-3 atom-4' d='M 194.1,140.4 L 238.4,165.7' style='fill:none;fill-rule:evenodd;stroke:#000000;stroke-width:2.0px;stroke-linecap:butt;stroke-linejoin:miter;stroke-opacity:1' />
<path class='bond-3 atom-3 atom-4' d='M 194.1,149.2 L 230.7,170.2' style='fill:none;fill-rule:evenodd;stroke:#000000;stroke-width:2.0px;stroke-linecap:butt;stroke-linejoin:miter;stroke-opacity:1' />
<path class='bond-4 atom-4 atom-5' d='M 238.4,165.7 L 238.6,216.8' style='fill:none;fill-rule:evenodd;stroke:#000000;stroke-width:2.0px;stroke-linecap:butt;stroke-linejoin:miter;stroke-opacity:1' />
<path class='bond-5 atom-5 atom-6' d='M 238.6,216.8 L 194.4,242.5' style='fill:none;fill-rule:evenodd;stroke:#000000;stroke-width:2.0px;stroke-linecap:butt;stroke-linejoin:miter;stroke-opacity:1' />
<path class='bond-5 atom-5 atom-6' d='M 230.9,212.4 L 194.4,233.6' style='fill:none;fill-rule:evenodd;stroke:#000000;stroke-width:2.0px;stroke-linecap:butt;stroke-linejoin:miter;stroke-opacity:1' />
<path class='bond-6 atom-6 atom-7' d='M 194.4,242.5 L 150.1,217.1' style='fill:none;fill-rule:evenodd;stroke:#000000;stroke-width:2.0px;stroke-linecap:butt;stroke-linejoin:miter;stroke-opacity:1' />
<path class='bond-7 atom-7 atom-8' d='M 150.1,217.1 L 106.0,242.8' style='fill:none;fill-rule:evenodd;stroke:#000000;stroke-width:2.0px;stroke-linecap:butt;stroke-linejoin:miter;stroke-opacity:1' />
<path class='bond-7 atom-7 atom-8' d='M 142.5,212.7 L 106.0,234.0' style='fill:none;fill-rule:evenodd;stroke:#000000;stroke-width:2.0px;stroke-linecap:butt;stroke-linejoin:miter;stroke-opacity:1' />
<path class='bond-8 atom-8 atom-9' d='M 106.0,242.8 L 61.7,217.4' style='fill:none;fill-rule:evenodd;stroke:#000000;stroke-width:2.0px;stroke-linecap:butt;stroke-linejoin:miter;stroke-opacity:1' />
<path class='bond-9 atom-9 atom-10' d='M 61.7,217.4 L 61.5,166.4' style='fill:none;fill-rule:evenodd;stroke:#000000;stroke-width:2.0px;stroke-linecap:butt;stroke-linejoin:miter;stroke-opacity:1' />
<path class='bond-9 atom-9 atom-10' d='M 69.3,213.0 L 69.2,170.8' style='fill:none;fill-rule:evenodd;stroke:#000000;stroke-width:2.0px;stroke-linecap:butt;stroke-linejoin:miter;stroke-opacity:1' />
<path class='bond-10 atom-10 atom-11' d='M 61.5,166.4 L 17.2,141.0' style='fill:none;fill-rule:evenodd;stroke:#000000;stroke-width:2.0px;stroke-linecap:butt;stroke-linejoin:miter;stroke-opacity:1' />
<path class='bond-11 atom-11 atom-12' d='M 17.2,141.0 L 17.0,89.9' style='fill:none;fill-rule:evenodd;stroke:#000000;stroke-width:2.0px;stroke-linecap:butt;stroke-linejoin:miter;stroke-opacity:1' />
<path class='bond-11 atom-11 atom-12' d='M 24.9,136.6 L 24.7,94.3' style='fill:none;fill-rule:evenodd;stroke:#000000;stroke-width:2.0px;stroke-linecap:butt;stroke-linejoin:miter;stroke-opacity:1' />
<path class='bond-12 atom-12 atom-13' d='M 17.0,89.9 L 61.2,64.3' style='fill:none;fill-rule:evenodd;stroke:#000000;stroke-width:2.0px;stroke-linecap:butt;stroke-linejoin:miter;stroke-opacity:1' />
<path class='bond-13 atom-13 atom-14' d='M 61.2,64.3 L 105.5,89.6' style='fill:none;fill-rule:evenodd;stroke:#000000;stroke-width:2.0px;stroke-linecap:butt;stroke-linejoin:miter;stroke-opacity:1' />
<path class='bond-13 atom-13 atom-14' d='M 61.2,73.1 L 97.8,94.1' style='fill:none;fill-rule:evenodd;stroke:#000000;stroke-width:2.0px;stroke-linecap:butt;stroke-linejoin:miter;stroke-opacity:1' />
<path class='bond-14 atom-14 atom-15' d='M 105.5,89.6 L 105.6,140.7' style='fill:none;fill-rule:evenodd;stroke:#000000;stroke-width:2.0px;stroke-linecap:butt;stroke-linejoin:miter;stroke-opacity:1' />
<path class='bond-15 atom-15 atom-16' d='M 105.6,140.7 L 150.0,166.1' style='fill:none;fill-rule:evenodd;stroke:#000000;stroke-width:2.0px;stroke-linecap:butt;stroke-linejoin:miter;stroke-opacity:1' />
<path class='bond-15 atom-15 atom-16' d='M 113.3,136.2 L 149.9,157.2' style='fill:none;fill-rule:evenodd;stroke:#000000;stroke-width:2.0px;stroke-linecap:butt;stroke-linejoin:miter;stroke-opacity:1' />
<path class='bond-16 atom-14 atom-1' d='M 105.5,89.6 L 149.6,63.9' style='fill:none;fill-rule:evenodd;stroke:#000000;stroke-width:2.0px;stroke-linecap:butt;stroke-linejoin:miter;stroke-opacity:1' />
<path class='bond-17 atom-16 atom-3' d='M 150.0,166.1 L 194.1,140.4' style='fill:none;fill-rule:evenodd;stroke:#000000;stroke-width:2.0px;stroke-linecap:butt;stroke-linejoin:miter;stroke-opacity:1' />
<path class='bond-18 atom-16 atom-7' d='M 150.0,166.1 L 150.1,217.1' style='fill:none;fill-rule:evenodd;stroke:#000000;stroke-width:2.0px;stroke-linecap:butt;stroke-linejoin:miter;stroke-opacity:1' />
<path class='bond-19 atom-15 atom-10' d='M 105.6,140.7 L 61.5,166.4' style='fill:none;fill-rule:evenodd;stroke:#000000;stroke-width:2.0px;stroke-linecap:butt;stroke-linejoin:miter;stroke-opacity:1' />
<path d='M 191.7,88.0 L 193.9,89.3 L 193.9,91.9' style='fill:none;stroke:#000000;stroke-width:2.0px;stroke-linecap:butt;stroke-linejoin:miter;stroke-miterlimit:10;stroke-opacity:1;' />
<path d='M 236.2,164.5 L 238.4,165.7 L 238.4,168.3' style='fill:none;stroke:#000000;stroke-width:2.0px;stroke-linecap:butt;stroke-linejoin:miter;stroke-miterlimit:10;stroke-opacity:1;' />
<path d='M 238.6,214.2 L 238.6,216.8 L 236.4,218.1' style='fill:none;stroke:#000000;stroke-width:2.0px;stroke-linecap:butt;stroke-linejoin:miter;stroke-miterlimit:10;stroke-opacity:1;' />
<path d='M 196.7,241.2 L 194.4,242.5 L 192.2,241.2' style='fill:none;stroke:#000000;stroke-width:2.0px;stroke-linecap:butt;stroke-linejoin:miter;stroke-miterlimit:10;stroke-opacity:1;' />
<path d='M 108.2,241.5 L 106.0,242.8 L 103.8,241.5' style='fill:none;stroke:#000000;stroke-width:2.0px;stroke-linecap:butt;stroke-linejoin:miter;stroke-miterlimit:10;stroke-opacity:1;' />
<path d='M 63.9,218.7 L 61.7,217.4 L 61.7,214.9' style='fill:none;stroke:#000000;stroke-width:2.0px;stroke-linecap:butt;stroke-linejoin:miter;stroke-miterlimit:10;stroke-opacity:1;' />
<path d='M 19.4,142.3 L 17.2,141.0 L 17.2,138.5' style='fill:none;stroke:#000000;stroke-width:2.0px;stroke-linecap:butt;stroke-linejoin:miter;stroke-miterlimit:10;stroke-opacity:1;' />
<path d='M 17.0,92.5 L 17.0,89.9 L 19.2,88.7' style='fill:none;stroke:#000000;stroke-width:2.0px;stroke-linecap:butt;stroke-linejoin:miter;stroke-miterlimit:10;stroke-opacity:1;' />
<path d='M 58.9,65.5 L 61.2,64.3 L 63.4,65.5' style='fill:none;stroke:#000000;stroke-width:2.0px;stroke-linecap:butt;stroke-linejoin:miter;stroke-miterlimit:10;stroke-opacity:1;' />
<path class='atom-1' d='M123.874,12.9838 C123.881,14.8984 126.434,14.8892 126.427,12.9746 C126.42,11.06 128.973,11.0508 128.98,12.9654 C128.986,14.88 131.539,14.8708 131.532,12.9562 C131.525,11.0417 134.078,11.0325 134.085,12.947 C134.092,14.8616 136.645,14.8524 136.638,12.9379 C136.631,11.0233 139.184,11.0141 139.191,12.9287 C139.198,14.8432 141.751,14.834 141.744,12.9195 C141.737,11.0049 144.29,10.9957 144.296,12.9103 C144.303,14.8249 146.856,14.8157 146.849,12.9011 C146.842,10.9865 149.395,10.9773 149.402,12.8919 C149.409,14.8065 151.962,14.7973 151.955,12.8827 C151.948,10.9681 154.501,10.9589 154.508,12.8735 C154.515,14.7881 157.067,14.7789 157.061,12.8643 C157.054,10.9498 159.606,10.9406 159.613,12.8551 C159.62,14.7697 162.173,14.7605 162.166,12.846 C162.159,10.9314 164.712,10.9222 164.719,12.8368 C164.726,14.7513 167.279,14.7421 167.272,12.8276 C167.265,10.913 169.818,10.9038 169.825,12.8184 C169.831,14.733 172.384,14.7238 172.377,12.8092 C172.371,10.8946 174.923,10.8854 174.93,12.8' style='fill:none;stroke:#7F7F7F;stroke-width:2.0px;stroke-linecap:butt;stroke-linejoin:miter;stroke-opacity:1' />
</svg>

<svg height="256" viewBox="0 0 256 256" width="256" xmlns="http://www.w3.org/2000/svg"><path d="m0 0h256v256h-256z" fill="#fff"/><g fill="none" stroke-width="2"><path d="m149.4 12.9.2 51" stroke="#000"/><path d="m149.6 63.9 44.3 25.4" stroke="#000"/><path d="m149.6 72.8 36.7 21" stroke="#000"/><path d="m193.9 89.3.2 51.1" stroke="#000"/><path d="m194.1 140.4 44.3 25.3" stroke="#000"/><path d="m194.1 149.2 36.6 21" stroke="#000"/><path d="m238.4 165.7.2 51.1" stroke="#000"/><path d="m238.6 216.8-44.2 25.7" stroke="#000"/><path d="m230.9 212.4-36.5 21.2" stroke="#000"/><path d="m194.4 242.5-44.3-25.4" stroke="#000"/><path d="m150.1 217.1-44.1 25.7" stroke="#000"/><path d="m142.5 212.7-36.5 21.3" stroke="#000"/><path d="m106 242.8-44.3-25.4" stroke="#000"/><path d="m61.7 217.4-.2-51" stroke="#000"/><path d="m69.3 213-.1-42.2" stroke="#000"/><path d="m61.5 166.4-44.3-25.4" stroke="#000"/><path d="m17.2 141-.2-51.1" stroke="#000"/><path d="m24.9 136.6-.2-42.3" stroke="#000"/><path d="m17 89.9 44.2-25.6" stroke="#000"/><path d="m61.2 64.3 44.3 25.3" stroke="#000"/><path d="m61.2 73.1 36.6 21" stroke="#000"/><path d="m105.5 89.6.1 51.1" stroke="#000"/><path d="m105.6 140.7 44.4 25.4" stroke="#000"/><path d="m113.3 136.2 36.6 21" stroke="#000"/><path d="m105.5 89.6 44.1-25.7" stroke="#000"/><path d="m150 166.1 44.1-25.7" stroke="#000"/><path d="m150 166.1.1 51" stroke="#000"/><path d="m105.6 140.7-44.1 25.7" stroke="#000"/><path d="m191.7 88 2.2 1.3v2.6" stroke="#000" stroke-miterlimit="10"/><path d="m236.2 164.5 2.2 1.2v2.6" stroke="#000" stroke-miterlimit="10"/><path d="m238.6 214.2v2.6l-2.2 1.3" stroke="#000" stroke-miterlimit="10"/><path d="m196.7 241.2-2.3 1.3-2.2-1.3" stroke="#000" stroke-miterlimit="10"/><path d="m108.2 241.5-2.2 1.3-2.2-1.3" stroke="#000" stroke-miterlimit="10"/><path d="m63.9 218.7-2.2-1.3v-2.5" stroke="#000" stroke-miterlimit="10"/><path d="m19.4 142.3-2.2-1.3v-2.5" stroke="#000" stroke-miterlimit="10"/><path d="m17 92.5v-2.6l2.2-1.2" stroke="#000" stroke-miterlimit="10"/><path d="m58.9 65.5 2.3-1.2 2.2 1.2" stroke="#000" stroke-miterlimit="10"/><path d="m123.874 12.984c.007 1.914 2.56 1.905 2.553-.009-.007-1.915 2.546-1.924 2.553-.01.006 1.915 2.559 1.906 2.552-.009-.007-1.914 2.546-1.923 2.553-.009.007 1.915 2.56 1.905 2.553-.009-.007-1.915 2.546-1.924 2.553-.009.007 1.914 2.56 1.905 2.553-.009-.007-1.915 2.546-1.924 2.552-.01.007 1.915 2.56 1.906 2.553-.009-.007-1.914 2.546-1.924 2.553-.009s2.56 1.905 2.553-.009c-.007-1.915 2.546-1.924 2.553-.009.007 1.914 2.559 1.905 2.553-.01-.007-1.914 2.545-1.923 2.552-.009.007 1.915 2.56 1.906 2.553-.009s2.546-1.924 2.553-.009c.007 1.914 2.56 1.905 2.553-.009-.007-1.915 2.546-1.924 2.553-.01.006 1.915 2.559 1.906 2.552-.009-.006-1.914 2.546-1.924 2.553-.009" stroke="#7f7f7f"/></g></svg>
